img/svg/net/thunderbird.svg

<?xml version="1.0" encoding="iso-8859-1"?>
<!-- Generator: Adobe Illustrator 21.0.2, SVG Export Plug-In . SVG Version: 6.00 Build 0)  -->
<svg version="1.1" id="&#x56FE;&#x5C42;_1" xmlns="http://www.w3.org/2000/svg" xmlns:xlink="http://www.w3.org/1999/xlink" x="0px"
	 y="0px" viewBox="0 0 16 16" style="enable-background:new 0 0 16 16;" xml:space="preserve">
<g>
	<path d="M9.346,12.467c0.114-0.151,0.178-0.242,0.24-0.336c0.104-0.155,0.166-0.259,0.227-0.364
		c0.092-0.161,0.151-0.276,0.21-0.396c0.084-0.173,0.14-0.297,0.191-0.426c0.059-0.146,0.103-0.263,0.142-0.375
		c-0.045-0.003-0.088-0.008-0.131-0.014c-0.321-0.045-0.602-0.244-0.75-0.533s-0.148-0.633,0.003-0.92
		c0.254-0.486,0.348-0.941,0.347-1.356L5.517,9.368l-1.081-1.72C4.293,7.736,4.128,7.79,3.952,7.797
		c-0.099,0.002-0.195-0.006-0.287-0.03C3.684,7.8,3.7,7.835,3.715,7.871c0.154,0.375,0.067,0.805-0.22,1.091
		c-0.105,0.105-0.256,0.19-0.417,0.246l0.062,0.259C3.158,9.536,3.178,9.61,3.2,9.686l2.275,0.737
		c0.094,0.03,0.182,0.074,0.263,0.13c0.097,0.068,0.216,0.177,0.284,0.274c0.22,0.317,0.422,0.61,0.564,0.886l2.672,0.865
		C9.29,12.539,9.319,12.502,9.346,12.467z"/>
	<path d="M9.745,7.101c-0.05-0.2-0.119-0.386-0.199-0.555c-1.884-0.364-2.469-0.441-2.65-0.454C6.762,6.093,6.472,6.244,6.037,6.539
		c-0.087,0.059-0.16,0.107-0.213,0.14C5.606,6.81,5.347,6.945,5.063,7.091L4.89,7.181l0.888,1.413L9.745,7.101z"/>
	<path d="M14.927,6.729c-0.001-0.043,0-0.085-0.005-0.133H14.92c0,0,0-0.001,0.002-0.001c-0.009-0.059-0.022-0.117-0.033-0.176
		c-0.001-0.006-0.001-0.012-0.002-0.018c-0.001-0.011-0.002-0.022-0.004-0.033h-0.002v0.001L14.88,6.368
		c-0.111-0.613-0.281-1.198-0.505-1.728c-0.595-1.396-1.554-2.287-2.672-2.72c0,0-0.001-0.001-0.001-0.002h0l0,0H11.7v0
		c-0.346-0.324-1.15-0.54-1.605-0.632C9.703,1.207,9.285,1.182,8.89,1.153c-0.273-0.02-1.051-0.005-1.381,0.029
		c-0.083,0.009-0.16,0.021-0.233,0.034C7.212,1.227,7.152,1.241,7.094,1.256C7.14,1.23,7.185,1.204,7.232,1.178
		c0,0-0.042,0.007-0.119,0.022C7.114,1.196,7.114,1.194,7.116,1.19C7.119,1.186,7.12,1.182,7.123,1.178
		C7.122,1.178,7.121,1.179,7.119,1.18l0,0c0-0.001,0-0.001,0-0.001c0,0,0,0.001-0.001,0.002l0,0
		C7.102,1.188,7.087,1.199,7.071,1.207C6.952,1.231,6.772,1.269,6.546,1.326c0.114-0.172,0.253-0.353,0.422-0.514H6.966c0,0,0,0,0,0
		l0,0H6.965C6.904,0.838,6.841,0.874,6.78,0.915c-0.191,0.124-0.39,0.31-0.579,0.503C6.045,1.461,5.877,1.511,5.7,1.569
		c0.176-0.302,0.494-0.712,1.068-1.224H6.766c0,0,0,0,0,0C6.742,0.35,5.636,0.541,4.724,1.936C3.458,2.481,2.069,3.371,1.492,4.773
		C1.491,4.774,1.491,4.775,1.49,4.776l0-0.003C1.174,5.35,1.009,6.121,0.993,7.086C0.99,7.216,0.996,7.345,1.006,7.474L1.002,7.471
		c0,0,0.094,2.016,0.894,3.332c0.419,0.739,0.852,1.221,1.236,1.538c0.002,0.002,0.003,0.005,0.005,0.007
		c0.006,0.004,0.011,0.007,0.017,0.011c0.18,0.147,0.348,0.256,0.499,0.339c1.612,1.069,1.166,0.445,1.168,0.445
		c0.398,0.233,0.664,0.233,0.666,0.233c-0.001-0.233-1-0.283-1.281-1.864c0.298,0.599,1.496,0.932,1.565,0.865
		c0.044-0.044-0.146-0.372-0.57-0.981l-0.034-0.023l-2.763-0.895c-0.092-0.262-0.171-0.526-0.238-0.781L2.035,9.146
		C1.888,8.464,1.833,7.952,1.834,7.952L1.832,7.95C1.823,7.695,1.823,7.519,1.823,7.519L1.821,7.506
		C2.2,8.071,2.662,8.379,2.79,8.251c-0.001,0-0.994-1.292-0.016-3.223c0.271-0.536,0.688-1.071,1.248-1.605
		c-0.056,0.09-0.105,0.184-0.139,0.284C3.702,4.068,3.816,4.611,3.859,5.018C3.86,5.02,3.861,5.023,3.862,5.025
		C3.868,5.09,3.873,5.153,3.875,5.21L3.886,5.5C3.873,5.479,3.868,5.466,3.87,5.466c0,0-0.001,0.003-0.001,0.003
		c0,0-0.001-0.003-0.001-0.003c0.002,0-0.371,0.918,0.043,1.331c0-0.001,0.001-0.002,0.001-0.003c0,0.001,0.001,0.003,0.001,0.003
		c0-0.001,0-0.001,0-0.002c0,0,0.001,0.001,0.001,0.002c0.001-0.006,0.004-0.011,0.005-0.017L3.913,6.798
		c0,0,0.181-0.33,0.512-0.503c0.331-0.172,0.636-0.325,0.883-0.474C5.557,5.672,6.333,5.05,6.965,5.094
		c0.39,0.027,1.468,0.214,3.229,0.558c0.679,1.077,0.929,2.461,0.168,3.913l0,0h0l0,0l0,0c0.004,0,0.745,0.127,1.371-0.604
		c-0.001,0.01-0.002,0.021-0.003,0.032c-0.022,0.184-0.049,0.363-0.079,0.537c-0.006,0.034-0.011,0.069-0.017,0.102
		c-0.033,0.178-0.071,0.35-0.113,0.519c-0.007,0.027-0.013,0.055-0.02,0.082c-0.044,0.17-0.092,0.334-0.144,0.494
		c-0.007,0.023-0.014,0.046-0.022,0.068c-0.053,0.16-0.11,0.315-0.17,0.466c-0.008,0.02-0.016,0.04-0.024,0.06
		c-0.061,0.149-0.125,0.293-0.192,0.433c-0.009,0.019-0.018,0.038-0.028,0.057c-0.067,0.137-0.137,0.269-0.209,0.397
		c-0.011,0.019-0.022,0.038-0.033,0.057c-0.071,0.124-0.145,0.244-0.219,0.358c-0.013,0.021-0.027,0.041-0.041,0.061
		c-0.073,0.11-0.148,0.216-0.223,0.318c-0.017,0.023-0.035,0.045-0.052,0.068c-0.073,0.095-0.146,0.187-0.22,0.275
		c-0.023,0.027-0.046,0.052-0.068,0.078c-0.069,0.079-0.138,0.157-0.208,0.229c-0.031,0.032-0.061,0.062-0.091,0.092
		c-0.062,0.062-0.123,0.124-0.185,0.181c-0.041,0.038-0.082,0.073-0.123,0.109c-0.051,0.045-0.101,0.09-0.151,0.131
		c-0.056,0.046-0.11,0.087-0.164,0.129c-0.034,0.026-0.069,0.054-0.102,0.079c-0.078,0.056-0.153,0.108-0.227,0.156
		c-0.01,0.006-0.02,0.014-0.029,0.02c-0.172,0.11-0.333,0.196-0.476,0.259c0.002,0,0.003-0.001,0.005-0.001
		c-0.001,0-0.002,0.001-0.003,0.002c1.446,0.1,2.335-0.403,2.337-0.403c0.002,0-0.194,0.237-0.71,0.553
		c0.649,0,2.264-0.616,2.582-1.265l0.165,0.067c-0.001,0,2.027-1.419,2.444-4.668c0.009-0.028,0.016-0.048,0.017-0.051
		C14.934,9.04,14.934,9.04,14.936,9.04c0.024-0.222,0.038-0.456,0.047-0.695c0.005-0.12,0.008-0.242,0.01-0.366
		c0-0.004,0-0.009,0-0.013C14.995,7.575,14.974,7.164,14.927,6.729z M4.576,5.566L4.576,5.566l-0.002,0
		c0-0.001,0.001-0.002,0.002-0.003C3.933,3.419,5.685,3.441,7.367,2.465C5.302,4.461,6.121,5.515,4.576,5.566z"/>
	<path d="M5.379,4.833h0.002c0.1-0.192,0.208-0.432,0.123-0.677C5.251,4.073,4.67,4.131,4.713,4.673
		C4.74,5.056,5.088,5.124,5.379,4.833z"/>
</g>
</svg>

<svg xmlns="http://www.w3.org/2000/svg" viewBox="0 0 16 16"><title>thunderbird</title><path d="M9.59,12.13c.1-.16.17-.26.23-.36s.15-.28.21-.4.14-.3.19-.43l.14-.37h-.13A1,1,0,0,1,9.48,9.1a2.88,2.88,0,0,0,.35-1.36L5.52,9.37,4.44,7.65A1,1,0,0,1,4,7.8a1,1,0,0,1-.29,0l0,.1A1,1,0,0,1,3.49,9a1.12,1.12,0,0,1-.42.25l.06.26.06.22,2.28.74a1,1,0,0,1,.26.13,1.26,1.26,0,0,1,.28.27,8.32,8.32,0,0,1,.56.89l2.67.87.09-.11Z"/><path d="M9.55,6.55C7.66,6.18,7.08,6.1,6.9,6.09A2.35,2.35,0,0,0,6,6.54l-.21.14c-.22.13-.48.27-.76.41l-.17.09.89,1.41,4-1.49A3,3,0,0,0,9.55,6.55Z"/><path d="M14.93,6.73s0-.09,0-.13h0l0-.18V6.37h0a8.23,8.23,0,0,0-.5-1.73A4.8,4.8,0,0,0,11.7,1.92h0a3.94,3.94,0,0,0-1.6-.63,9.93,9.93,0,0,0-1.2-.13,12.14,12.14,0,0,0-1.38,0l-.23,0-.18,0,.14-.08-.12,0h0l0,0-.53.12A2.94,2.94,0,0,1,7,.81H7l-.19.1a3.68,3.68,0,0,0-.58.5l-.5.15A5.29,5.29,0,0,1,6.77.35h0a3.38,3.38,0,0,0-2,1.59A5.81,5.81,0,0,0,1.49,4.77h0A5,5,0,0,0,1,7.09c0,.13,0,.26,0,.39H1A8.33,8.33,0,0,0,1.9,10.8a5.44,5.44,0,0,0,1.24,1.54h0a3.29,3.29,0,0,0,.5.34c1.61,1.07,1.17.45,1.17.45a1.46,1.46,0,0,0,.67.23c0-.23-1-.28-1.28-1.86a2.25,2.25,0,0,0,1.56.87s-.15-.37-.57-1l0,0L2.4,10.48c-.09-.26-.17-.53-.24-.78L2,9.15C1.89,8.46,1.83,8,1.83,8h0c0-.26,0-.43,0-.43h0c.38.57.84.87,1,.75A3.07,3.07,0,0,1,2.77,5,6,6,0,0,1,4,3.42a1.38,1.38,0,0,0-.14.28A2.57,2.57,0,0,0,3.86,5h0c0,.07,0,.13,0,.18V5.5l0,0h0s-.37.92,0,1.33h0v0a1.38,1.38,0,0,1,.51-.5c.33-.17.64-.32.88-.47A3.31,3.31,0,0,1,7,5.09q.59,0,3.23.56a3.78,3.78,0,0,1,.17,3.91h0A1.57,1.57,0,0,0,11.73,9V9c0,.18,0,.36-.08.54l0,.1c0,.18-.07.35-.11.52l0,.08q-.07.25-.14.49l0,.07q-.08.24-.17.47l0,.06q-.09.22-.19.43l0,.06-.21.4,0,.06-.22.36,0,.06L10.2,13l-.05.07-.22.27-.07.08-.21.23-.09.09-.18.18L9.25,14l-.15.13-.16.13-.1.08-.23.16,0,0a3.67,3.67,0,0,1-.48.26h0a4.47,4.47,0,0,0,2.34-.4,2.93,2.93,0,0,1-.71.55,3.92,3.92,0,0,0,2.58-1.26l.16.07a6.9,6.9,0,0,0,2.44-4.67l0-.05h0c0-.22,0-.46,0-.7S15,8.1,15,8h0A10.65,10.65,0,0,0,14.93,6.73ZM4.58,5.57h0c-.64-2.14,1.11-2.12,2.79-3.1C5.3,4.46,6.12,5.52,4.58,5.57Z"/><path d="M5.5,4.16c-.25-.08-.83,0-.79.52,0,.38.38.45.67.16h0A.86.86,0,0,0,5.5,4.16Z"/></svg>
